X:1
T:Temperance Reel
R:Reel
M:C|
%%printtempo 0
Q:180
K:G
((3DEF)|"G"G2GF GABc|dBge dBAc|"Em"BEED EFGA|"D"BGAF GFEF|
"G"G2GF GABc|dBge dBAc|"Em"BEED EFGA|"D"BGAF "G"G2:|
|:A2|"Em"Beed e3f|geaf gfed|"D"Bdd^c d3e|fdaf gfed|
"Em"Beed e3f|geaf gfed|BEED EFGA|"D"BGAF "G"G2:|
